src/assets/svg/bx-shopping-bag.svg

<svg xmlns="http://www.w3.org/2000/svg" width="24" height="24" viewBox="0 0 24 24"><path d="M5,22h14c1.103,0,2-0.897,2-2V9c0-0.553-0.447-1-1-1h-3V7c0-2.757-2.243-5-5-5S7,4.243,7,7v1H4C3.447,8,3,8.447,3,9v11 C3,21.103,3.897,22,5,22z M9,7c0-1.654,1.346-3,3-3s3,1.346,3,3v1H9V7z M5,10h2v2h2v-2h6v2h2v-2h2l0.002,10H5V10z"/></svg>

<svg xmlns="http://www.w3.org/2000/svg" width="18" height="20" viewBox="0 0 18 20">
  <path id="bx-shopping-bag" d="M5,22H19a2,2,0,0,0,2-2V9a1,1,0,0,0-1-1H17V7A5,5,0,0,0,7,7V8H4A1,1,0,0,0,3,9V20A2,2,0,0,0,5,22ZM9,7a3,3,0,0,1,6,0V8H9ZM5,10H7v2H9V10h6v2h2V10h2l0,10H5Z" transform="translate(-3 -2)" fill="#fff" opacity="0.8"/>
</svg>
